X: 1748
T: THE REDHAIRED BOY
M:2/4
L:1/16
B:O'NEILL'S 1748
N:"collected by F. O'Neill
Z:Transcribed by A. LEE WORMAN
K:A
(AG)|EAAG ABcd|efec d2(cd)|edcB ABcA|BGEF G2(ED)|
EAAG ABcd|efec d2(cd)|eaab aged|c2A2 A2:|
|:(ef)|gfga g2(ef)|gfec d2(cd)|edcB ABcA|BGEF G2(ED)|
EAAG ABcd|efec d2(cd)|eaab aged|c2A2 A2:|


